Adwaita++/apps/scalable/preferences-desktop-plasma-theme.svg

<svg fill="none" height="128" viewBox="0 0 128 128" width="128" xmlns="http://www.w3.org/2000/svg" xmlns:xlink="http://www.w3.org/1999/xlink">
  <linearGradient id="paint0_linear" gradientUnits="userSpaceOnUse" x1="12" x2="116" y1="64" y2="64">
    <stop offset="0" stop-color="#77767b"/>
    <stop offset=".05" stop-color="#c0bfbc"/>
    <stop offset=".1" stop-color="#9a9996"/>
    <stop offset=".9" stop-color="#9a9996"/>
    <stop offset=".95" stop-color="#c0bfbc"/>
    <stop offset="1" stop-color="#77767b"/>
  </linearGradient>
  <path d="m108 22h-88c-4.4183 0-8 3.5817-8 8v78c0 4.418 3.5817 8 8 8h88c4.418 0 8-3.582 8-8v-78c0-4.4183-3.582-8-8-8z" fill="url(#paint0_linear)"/>
  <path d="m108 12h-88c-4.4183 0-8 3.5817-8 8v80c0 4.418 3.5817 8 8 8h88c4.418 0 8-3.582 8-8v-80c0-4.4183-3.582-8-8-8z" fill="#deddda"/>
  <path d="m108 104h-88c-2.2091 0-4-1.791-4-4v-80c0-2.2091 1.7909-4 4-4h88c2.209 0 4 1.7909 4 4v80c0 2.209-1.791 4-4 4z" fill="#3584e4"/>
  <path d="m20 104h88c2.209 0 4-1.791 4-4v-80c0-2.2091-1.791-4-4-4l-92 84c0 2.209 1.7909 4 4 4z" fill="#9141ac"/>
  <path d="m20 104h88c2.209 0 4-1.791 4-4l-71.0023-22.824-24.9977 22.824c0 2.209 1.7909 4 4 4z" fill="#3d3846"/>
  <path d="m16 20v7h48v-11h-44c-2.2091 0-4 1.7909-4 4z" fill="#f6f5f4" opacity=".4"/>
  <path d="m112 27v-7c0-2.2091-1.791-4-4-4 0-.4-28.6667-.1667-44 0v4 7z" fill="#241f31" opacity=".4"/>
  <path d="m25.5 21.5c0-1.6569-1.3431-3-3-3s-3 1.3431-3 3 1.3431 3 3 3 3-1.3431 3-3z" fill="#3d3846"/>
  <path d="m25.5 21.5c0-1.6569-1.3431-3-3-3s-3 1.3431-3 3 1.3431 3 3 3 3-1.3431 3-3z" fill="#3d3846"/>
  <g fill="#f6f5f4">
    <path d="m88.9455 24.2672v-4.4645h-.9455v-.633c.6194 0 1.0003-.2193 1.1428-.6578h.6578v5.7553z"/>
    <path d="m91.5547 24.2672c0-1.3209.6906-2.3377 2.0719-3.0503.3015-.1535.5372-.3152.7071-.4851.1699-.1754.2549-.3892.2549-.6413 0-.2412-.0959-.444-.2878-.6084-.1863-.1645-.4248-.2467-.7153-.2467-.5755 0-.962.2549-1.1593.7647l-.7811-.3536c.1425-.3727.3865-.6714.7318-.8962.3508-.2247.7564-.3371 1.2168-.3371.5756 0 1.0333.159 1.3731.4769.3398.3124.5097.7208.5097 1.2251 0 .3124-.0712.5865-.2137.8222-.1371.2357-.2988.422-.4851.5591-.1864.137-.4495.2959-.7893.4768-.8003.4276-1.2635.9127-1.3895 1.4553h2.927v.8386z"/>
    <path d="m96.9915 21.4965c-.1754 0-.3234-.0576-.444-.1727-.1151-.1206-.1726-.2631-.1726-.4275 0-.1645.0575-.307.1726-.4276.1206-.1206.2686-.1809.444-.1809.1699 0 .3152.0603.4358.1809.126.1206.1891.2631.1891.4276 0 .1644-.0631.3069-.1891.4275-.1206.1151-.2659.1727-.4358.1727zm0 2.8694c-.1754 0-.3234-.0575-.444-.1727-.1151-.1205-.1726-.2631-.1726-.4275s.0575-.3069.1726-.4275c.1206-.1206.2686-.1809.444-.1809.1699 0 .3152.0603.4358.1809.126.1206.1891.2631.1891.4275s-.0631.307-.1891.4275c-.1206.1152-.2659.1727-.4358.1727z"/>
    <path d="m99.1346 24.2672v-4.4645h-.9455v-.633c.6194 0 1.0003-.2193 1.1428-.6578h.6578v5.7553z"/>
    <path d="m104.272 24.2672v-1.3072h-3.1v-.5509l2.944-3.8972h1.011v3.6588h.748v.7893h-.748v1.3072zm0-2.0965v-2.6228l-1.965 2.6228z"/>
  </g>
  <path d="m53.7813 41.5625c-1.6923 0-3.0547 1.3624-3.0547 3.0547s1.3624 3.0547 3.0547 3.0547 3.0546-1.3624 3.0546-3.0547-1.3623-3.0547-3.0546-3.0547zm19.2009 0-6.9822 6.9821 10.4732 10.4733-10.4732 10.4732 6.9822 6.9821 10.4732-10.4732 6.9821-6.9821-6.9821-6.9822zm-26.8377 18.3281c-2.5384 0-4.582 2.0436-4.582 4.5821 0 2.5384 2.0436 4.582 4.582 4.582 2.5385 0 4.5821-2.0436 4.5821-4.582 0-2.5385-2.0436-4.5821-4.5821-4.5821zm13.7461 18.3282c-3.3846 0-6.1093 2.7247-6.1093 6.1093s2.7247 6.1094 6.1093 6.1094 6.1094-2.7248 6.1094-6.1094-2.7248-6.1093-6.1094-6.1093z" fill="#241f31" opacity=".5"/>
  <path d="m51.7813 39.5625c-1.6923 0-3.0547 1.3624-3.0547 3.0547s1.3624 3.0547 3.0547 3.0547 3.0546-1.3624 3.0546-3.0547-1.3623-3.0547-3.0546-3.0547zm19.2009 0-6.9822 6.9821 10.4732 10.4733-10.4732 10.4732 6.9822 6.9821 10.4732-10.4732 6.9821-6.9821-6.9821-6.9822zm-26.8377 18.3281c-2.5384 0-4.582 2.0436-4.582 4.5821 0 2.5384 2.0436 4.582 4.582 4.582 2.5385 0 4.5821-2.0436 4.5821-4.582 0-2.5385-2.0436-4.5821-4.5821-4.5821zm13.7461 18.3282c-3.3846 0-6.1093 2.7247-6.1093 6.1093s2.7247 6.1094 6.1093 6.1094 6.1094-2.7248 6.1094-6.1094-2.7248-6.1093-6.1094-6.1093z" fill="#f6f5f4"/>
</svg>

<svg width="128" height="128" viewBox="0 0 128 128" fill="none" xmlns="http://www.w3.org/2000/svg">
<path d="M108 22H20C15.5817 22 12 25.5817 12 30V108C12 112.418 15.5817 116 20 116H108C112.418 116 116 112.418 116 108V30C116 25.5817 112.418 22 108 22Z" fill="url(#paint0_linear)"/>
<path d="M108 12H20C15.5817 12 12 15.5817 12 20V100C12 104.418 15.5817 108 20 108H108C112.418 108 116 104.418 116 100V20C116 15.5817 112.418 12 108 12Z" fill="#DEDDDA"/>
<path d="M108 104H20C17.7909 104 16 102.209 16 100V20C16 17.7909 17.7909 16 20 16H108C110.209 16 112 17.7909 112 20V100C112 102.209 110.209 104 108 104Z" fill="#3584E4"/>
<path d="M20 104H108C110.209 104 112 102.209 112 100V20C112 17.7909 110.209 16 108 16L16 100C16 102.209 17.7909 104 20 104Z" fill="url(#paint1_linear)"/>
<path d="M20 104H108C110.209 104 112 102.209 112 100L40.9977 77.176L16 100C16 102.209 17.7909 104 20 104Z" fill="url(#paint2_linear)"/>
<path opacity="0.4" d="M16 20V27H64V16H20C17.7909 16 16 17.7909 16 20Z" fill="url(#paint3_linear)"/>
<path opacity="0.4" d="M112 27V20C112 17.7909 110.209 16 108 16C108 15.6 79.3333 15.8333 64 16V20V27H112Z" fill="url(#paint4_linear)"/>
<path d="M25.5 21.5C25.5 19.8431 24.1569 18.5 22.5 18.5C20.8431 18.5 19.5 19.8431 19.5 21.5C19.5 23.1569 20.8431 24.5 22.5 24.5C24.1569 24.5 25.5 23.1569 25.5 21.5Z" fill="url(#paint5_linear)"/>
<path d="M25.5 21.5C25.5 19.8431 24.1569 18.5 22.5 18.5C20.8431 18.5 19.5 19.8431 19.5 21.5C19.5 23.1569 20.8431 24.5 22.5 24.5C24.1569 24.5 25.5 23.1569 25.5 21.5Z" fill="url(#paint6_linear)"/>
<path d="M88.9455 24.2672V19.8027H88V19.1697C88.6194 19.1697 89.0003 18.9504 89.1428 18.5119H89.8006V24.2672H88.9455Z" fill="url(#paint7_linear)"/>
<path d="M91.5547 24.2672C91.5547 22.9463 92.2453 21.9295 93.6266 21.2169C93.9281 21.0634 94.1638 20.9017 94.3337 20.7318C94.5036 20.5564 94.5886 20.3426 94.5886 20.0905C94.5886 19.8493 94.4927 19.6465 94.3008 19.4821C94.1145 19.3176 93.876 19.2354 93.5855 19.2354C93.01 19.2354 92.6235 19.4903 92.4262 20.0001L91.6451 19.6465C91.7876 19.2738 92.0316 18.9751 92.3769 18.7503C92.7277 18.5256 93.1333 18.4132 93.5937 18.4132C94.1693 18.4132 94.627 18.5722 94.9668 18.8901C95.3066 19.2025 95.4765 19.6109 95.4765 20.1152C95.4765 20.4276 95.4053 20.7017 95.2628 20.9374C95.1257 21.1731 94.964 21.3594 94.7777 21.4965C94.5913 21.6335 94.3282 21.7924 93.9884 21.9733C93.1881 22.4009 92.7249 22.886 92.5989 23.4286H95.5259V24.2672H91.5547Z" fill="url(#paint8_linear)"/>
<path d="M96.9915 21.4965C96.8161 21.4965 96.6681 21.4389 96.5475 21.3238C96.4324 21.2032 96.3749 21.0607 96.3749 20.8963C96.3749 20.7318 96.4324 20.5893 96.5475 20.4687C96.6681 20.3481 96.8161 20.2878 96.9915 20.2878C97.1614 20.2878 97.3067 20.3481 97.4273 20.4687C97.5533 20.5893 97.6164 20.7318 97.6164 20.8963C97.6164 21.0607 97.5533 21.2032 97.4273 21.3238C97.3067 21.4389 97.1614 21.4965 96.9915 21.4965ZM96.9915 24.3659C96.8161 24.3659 96.6681 24.3084 96.5475 24.1932C96.4324 24.0727 96.3749 23.9301 96.3749 23.7657C96.3749 23.6013 96.4324 23.4588 96.5475 23.3382C96.6681 23.2176 96.8161 23.1573 96.9915 23.1573C97.1614 23.1573 97.3067 23.2176 97.4273 23.3382C97.5533 23.4588 97.6164 23.6013 97.6164 23.7657C97.6164 23.9301 97.5533 24.0727 97.4273 24.1932C97.3067 24.3084 97.1614 24.3659 96.9915 24.3659Z" fill="url(#paint9_linear)"/>
<path d="M99.1346 24.2672V19.8027H98.1891V19.1697C98.8085 19.1697 99.1894 18.9504 99.3319 18.5119H99.9897V24.2672H99.1346Z" fill="url(#paint10_linear)"/>
<path d="M104.272 24.2672V22.96H101.172V22.4091L104.116 18.5119H105.127V22.1707H105.875V22.96H105.127V24.2672H104.272ZM104.272 22.1707V19.5479L102.307 22.1707H104.272Z" fill="url(#paint11_linear)"/>
<path opacity="0.5" d="M53.7813 41.5625C52.089 41.5625 50.7266 42.9249 50.7266 44.6172C50.7266 46.3095 52.089 47.6719 53.7813 47.6719C55.4736 47.6719 56.8359 46.3095 56.8359 44.6172C56.8359 42.9249 55.4736 41.5625 53.7813 41.5625ZM72.9822 41.5625L66 48.5446L76.4732 59.0179L66 69.4911L72.9822 76.4732L83.4554 66L90.4375 59.0179L83.4554 52.0357L72.9822 41.5625ZM46.1445 59.8906C43.6061 59.8906 41.5625 61.9342 41.5625 64.4727C41.5625 67.0111 43.6061 69.0547 46.1445 69.0547C48.683 69.0547 50.7266 67.0111 50.7266 64.4727C50.7266 61.9342 48.683 59.8906 46.1445 59.8906ZM59.8906 78.2188C56.506 78.2188 53.7813 80.9435 53.7813 84.3281C53.7813 87.7127 56.506 90.4375 59.8906 90.4375C63.2752 90.4375 66 87.7127 66 84.3281C66 80.9435 63.2752 78.2188 59.8906 78.2188Z" fill="url(#paint12_linear)"/>
<path d="M51.7813 39.5625C50.089 39.5625 48.7266 40.9249 48.7266 42.6172C48.7266 44.3095 50.089 45.6719 51.7813 45.6719C53.4736 45.6719 54.8359 44.3095 54.8359 42.6172C54.8359 40.9249 53.4736 39.5625 51.7813 39.5625ZM70.9822 39.5625L64 46.5446L74.4732 57.0179L64 67.4911L70.9822 74.4732L81.4554 64L88.4375 57.0179L81.4554 50.0357L70.9822 39.5625ZM44.1445 57.8906C41.6061 57.8906 39.5625 59.9342 39.5625 62.4727C39.5625 65.0111 41.6061 67.0547 44.1445 67.0547C46.683 67.0547 48.7266 65.0111 48.7266 62.4727C48.7266 59.9342 46.683 57.8906 44.1445 57.8906ZM57.8906 76.2188C54.506 76.2188 51.7813 78.9435 51.7813 82.3281C51.7813 85.7127 54.506 88.4375 57.8906 88.4375C61.2752 88.4375 64 85.7127 64 82.3281C64 78.9435 61.2752 76.2188 57.8906 76.2188Z" fill="url(#paint13_linear)"/>
<defs>
<linearGradient id="paint0_linear" x1="12" y1="64" x2="116" y2="64" gradientUnits="userSpaceOnUse">
<stop stop-color="#77767B"/>
<stop offset="0.05" stop-color="#C0BFBC"/>
<stop offset="0.1" stop-color="#9A9996"/>
<stop offset="0.9" stop-color="#9A9996"/>
<stop offset="0.95" stop-color="#C0BFBC"/>
<stop offset="1" stop-color="#77767B"/>
</linearGradient>
<linearGradient id="paint1_linear" x1="16" y1="60" x2="112" y2="60" gradientUnits="userSpaceOnUse">
<stop stop-color="#9141AC"/>
</linearGradient>
<linearGradient id="paint2_linear" x1="16" y1="90.588" x2="112" y2="90.588" gradientUnits="userSpaceOnUse">
<stop stop-color="#3D3846"/>
</linearGradient>
<linearGradient id="paint3_linear" x1="16" y1="21.5" x2="64" y2="21.5" gradientUnits="userSpaceOnUse">
<stop stop-color="#F6F5F4"/>
</linearGradient>
<linearGradient id="paint4_linear" x1="64" y1="21.3896" x2="112" y2="21.3896" gradientUnits="userSpaceOnUse">
<stop stop-color="#241F31"/>
</linearGradient>
<linearGradient id="paint5_linear" x1="19.5" y1="21.5" x2="25.5" y2="21.5" gradientUnits="userSpaceOnUse">
<stop stop-color="#3D3846"/>
</linearGradient>
<linearGradient id="paint6_linear" x1="19.5" y1="21.5" x2="25.5" y2="21.5" gradientUnits="userSpaceOnUse">
<stop stop-color="#3D3846"/>
</linearGradient>
<linearGradient id="paint7_linear" x1="88" y1="21.3896" x2="105.875" y2="21.3896" gradientUnits="userSpaceOnUse">
<stop stop-color="#F6F5F4"/>
</linearGradient>
<linearGradient id="paint8_linear" x1="88" y1="21.3896" x2="105.875" y2="21.3896" gradientUnits="userSpaceOnUse">
<stop stop-color="#F6F5F4"/>
</linearGradient>
<linearGradient id="paint9_linear" x1="88" y1="21.3896" x2="105.875" y2="21.3896" gradientUnits="userSpaceOnUse">
<stop stop-color="#F6F5F4"/>
</linearGradient>
<linearGradient id="paint10_linear" x1="88" y1="21.3896" x2="105.875" y2="21.3896" gradientUnits="userSpaceOnUse">
<stop stop-color="#F6F5F4"/>
</linearGradient>
<linearGradient id="paint11_linear" x1="88" y1="21.3896" x2="105.875" y2="21.3896" gradientUnits="userSpaceOnUse">
<stop stop-color="#F6F5F4"/>
</linearGradient>
<linearGradient id="paint12_linear" x1="41.5625" y1="66" x2="90.4375" y2="66" gradientUnits="userSpaceOnUse">
<stop stop-color="#241F31"/>
</linearGradient>
<linearGradient id="paint13_linear" x1="39.5625" y1="64" x2="88.4375" y2="64" gradientUnits="userSpaceOnUse">
<stop stop-color="#F6F5F4"/>
</linearGradient>
</defs>
</svg>
